icon-themes/breeze_svg/cmd/32/insertpagebreak.svg

<svg viewBox="0 0 32 32" xmlns="http://www.w3.org/2000/svg"><path d="m4 15v1h6v-1zm9 0v1h6v-1zm9 0v1h6v-1z" fill="#1d99f3"/><path d="m6 4v10h1 18 1v-10zm1 1h18v8h-18zm-1 12v1 10h12 1l7-7v-1-2-1h-1-18zm1 1h18v2h-7v7h-11z" fill="#4d4d4d"/></svg>

<svg xmlns="http://www.w3.org/2000/svg" viewBox="0 0 32 32">
 <path 
     style="fill:#1d99f3" 
     d="M 4 15 L 4 16 L 10 16 L 10 15 L 4 15 z M 13 15 L 13 16 L 19 16 L 19 15 L 13 15 z M 22 15 L 22 16 L 28 16 L 28 15 L 22 15 z "
     />
 <path 
     style="fill:#4d4d4d" 
     d="M 6 4 L 6 14 L 7 14 L 25 14 L 26 14 L 26 4 L 6 4 z M 7 5 L 25 5 L 25 13 L 7 13 L 7 5 z M 6 17 L 6 18 L 6 28 L 18 28 L 19 28 L 26 21 L 26 20 L 26 18 L 26 17 L 25 17 L 7 17 L 6 17 z M 7 18 L 25 18 L 25 20 L 18 20 L 18 27 L 7 27 L 7 18 z "
     />
</svg>
